docs/img/logo.svg

<svg width="256" height="60" viewBox="0 0 256 60" fill="none" xmlns="http://www.w3.org/2000/svg">
<path d="M30.069 10.0183V0L0 30L30.069 60V50.0367L10.0414 30L30.069 10.0183Z" fill="#1F8BEE"/>
<path d="M38.4004 10.0183V0L68.4693 30L38.4004 60V50.0367L58.428 30L38.4004 10.0183Z" fill="#1F8BEE"/>
<path d="M30.124 25.9266H21.9033V34.1285H30.124V25.9266Z" fill="#1F8BEE"/>
<path d="M88.8826 24.8239H84.5791V20.0349H88.8826V17.9982C88.8826 13.3193 91.7515 10.0716 97.655 10.0716C98.9239 10.0716 100.248 10.2367 101.462 10.2918V15.6863C100.579 15.5762 99.6963 15.5211 98.8136 15.5211C96.8274 15.5211 96.055 16.3468 96.055 18.4936V20.0899H101.02V24.8789H96.055V46.2367H88.8274V24.8239H88.8826Z" fill="white"/>
<path d="M106.372 10.0184H113.6V46.1835H106.372V10.0184Z" fill="white"/>
<path d="M133.406 49.4863C131.806 53.6698 129.268 55.4312 124.358 55.4312C122.868 55.4312 121.434 55.3211 119.944 55.156V49.2111C121.323 49.3762 122.758 49.5413 124.137 49.4863C126.013 49.2661 126.951 47.8349 126.951 46.1835C126.951 45.6331 126.841 45.0826 126.62 44.5872L117.406 20.0367H125.13L131.089 37.9817H131.199L136.937 20.0367H144.386L133.406 49.4863Z" fill="white"/>
<path d="M165.683 42.8257H165.573C163.917 45.6881 160.993 46.8991 157.628 46.8991C149.683 46.8991 145.876 40.1835 145.876 32.8624C145.876 25.8165 149.793 19.2661 157.517 19.2661C160.607 19.2661 163.642 20.5872 165.297 23.1743H165.407V10.0184H172.635V46.1835H165.793V42.8257H165.683ZM159.393 24.7156C154.648 24.7156 153.048 28.8441 153.048 33.0826C153.048 37.211 154.924 41.5046 159.393 41.5046C164.138 41.5046 165.573 37.3762 165.573 33.0275C165.573 28.789 164.028 24.7156 159.393 24.7156Z" fill="white"/>
<path d="M184 34.844C184.221 39.4679 186.372 41.5046 190.455 41.5046C193.324 41.5046 195.697 39.7431 196.138 38.0918H202.483C200.441 44.3119 196.138 46.8991 190.179 46.8991C181.903 46.8991 176.772 41.2294 176.772 33.1376C176.772 25.2661 182.179 19.3211 190.179 19.3211C199.117 19.3211 203.476 26.8073 202.924 34.844H184ZM195.752 30.2752C195.09 26.6422 193.545 24.7156 190.014 24.7156C185.324 24.7156 184.166 28.2385 184 30.2752H195.752Z" fill="white"/>
<path d="M221.627 46.1835H213.627L204.634 19.9817H212.192L217.71 37.8716H217.82L223.337 19.9817H230.51L221.627 46.1835Z" fill="white"/>
<path d="M238.51 37.7065C238.51 40.7891 241.269 42.1102 244.028 42.1102C246.069 42.1102 248.772 41.2845 248.772 38.7524C248.772 36.5505 245.738 35.7799 240.607 34.679C236.414 33.7432 232.276 32.367 232.276 27.6881C232.276 21.0276 238.069 19.2661 243.697 19.2661C249.379 19.2661 254.731 21.1927 255.283 27.6331H248.441C248.221 24.8257 246.124 24.1102 243.531 24.1102C241.931 24.1102 239.503 24.3854 239.503 26.5322C239.503 29.1193 243.641 29.4496 247.669 30.4404C251.862 31.3762 256 32.9175 256 37.7615C256 44.6423 249.986 46.8991 244.028 46.8991C237.959 46.8991 231.945 44.6423 231.669 37.7065H238.51Z" fill="white"/>
</svg>

<svg width="256" height="60" fill="none" xmlns="http://www.w3.org/2000/svg"><path d="M30.069 10.018V0L0 30l30.069 30v-9.963L10.041 30 30.07 10.018zm8.331 0V0l30.07 30L38.4 60v-9.963L58.428 30 38.4 10.018z" fill="#1F8BEE"/><path d="M30.124 25.927h-8.22v8.202h8.22v-8.202z" fill="#1F8BEE"/><path d="M88.883 24.824h-4.304v-4.79h4.304v-2.036c0-4.679 2.868-7.926 8.772-7.926 1.269 0 2.593.165 3.807.22v5.394a21.384 21.384 0 00-2.648-.165c-1.987 0-2.759.826-2.759 2.973v1.596h4.965v4.789h-4.965v21.358h-7.228V24.824h.056zm17.489-14.806h7.228v36.166h-7.228V10.018zm27.034 39.468c-1.6 4.184-4.138 5.945-9.048 5.945-1.49 0-2.924-.11-4.414-.275v-5.945c1.379.165 2.814.33 4.193.275 1.876-.22 2.814-1.651 2.814-3.302 0-.55-.11-1.101-.331-1.597l-9.214-24.55h7.724l5.959 17.945h.11l5.738-17.945h7.449l-10.98 29.45zm32.277-6.66h-.11c-1.656 2.862-4.58 4.073-7.945 4.073-7.945 0-11.752-6.715-11.752-14.037 0-7.046 3.917-13.596 11.641-13.596 3.09 0 6.125 1.321 7.78 3.908h.11V10.018h7.228v36.166h-6.842v-3.358h-.11zm-6.29-18.11c-4.745 0-6.345 4.128-6.345 8.367 0 4.128 1.876 8.422 6.345 8.422 4.745 0 6.18-4.129 6.18-8.477 0-4.239-1.545-8.312-6.18-8.312zM184 34.844c.221 4.624 2.372 6.66 6.455 6.66 2.869 0 5.242-1.76 5.683-3.412h6.345c-2.042 6.22-6.345 8.807-12.304 8.807-8.276 0-13.407-5.67-13.407-13.761 0-7.872 5.407-13.817 13.407-13.817 8.938 0 13.297 7.486 12.745 15.523H184zm11.752-4.569c-.662-3.633-2.207-5.56-5.738-5.56-4.69 0-5.848 3.523-6.014 5.56h11.752zm25.875 15.909h-8l-8.993-26.202h7.558l5.518 17.89h.11l5.517-17.89h7.173l-8.883 26.202zm16.883-8.478c0 3.083 2.759 4.404 5.518 4.404 2.041 0 4.744-.825 4.744-3.358 0-2.202-3.034-2.972-8.165-4.073-4.193-.936-8.331-2.312-8.331-6.99 0-6.661 5.793-8.423 11.421-8.423 5.682 0 11.034 1.927 11.586 8.367h-6.842c-.22-2.807-2.317-3.523-4.91-3.523-1.6 0-4.028.275-4.028 2.422 0 2.587 4.138 2.918 8.166 3.908 4.193.936 8.331 2.477 8.331 7.321 0 6.881-6.014 9.138-11.972 9.138-6.069 0-12.083-2.257-12.359-9.193h6.841z" fill="#fff"/></svg>
